X:7
T:Docabilly Blues
C:(for Doc and Bill)
N:Copyright 2002 Matthew R Fox TablEdited by Matthew Fox
L:1/8
Q:1/4=104
M:4/4
K:C
z8 |: z^D (3EGA B3/2c2z/ | zd B3/2(3G dB3 | z^D (3EGA Bc ec | (3[^fd][fd][fd] (3[fc][fc][fc] (3[^gB][gB][gB] (3[gA][gA][gA] | 
[a3/2c3/2E3/2A,3/2]a/ ^d/4=d/4(3cd c3/2A2z/ | zd (3BGB dB3 | (3AAA (3[cA][cA][cA] (3[B^G][BG][BG] (3GGG | 
[c2A2] e'2 a4 | zC (3EGc eg ec | (3[gBG][gBG][gBG] (3[gBG][gBG][gBG] (3[bdG][bdG][bdG] (3[bdG][bdG][bdG] | 
[acF]d dd d/4^d/4(3=dc Ac | (3[^gB][gB]"Downstrokes!"[gB] (3[gB][gB][gB] (3[bd][bd][bd] (3[bd][bd][bd] | 
[a3/2c3/2]a/ ^d/4=d/4(3cd c3/2A2z/ | zd (3BGB dB3 | (3AAA (3[cA][cA][cA] (3[B^G][BG][BG] (3GGG | 
|1 [c2A2] e'2 a'4 :|2 [c8A8] | z8 | z8 | z8 | 


